Catalina-light/actions/16/media-playlist-shuffle-symbolic.svg

<?xml version="1.0" encoding="UTF-8" standalone="no"?>
<svg
   xmlns:dc="http://purl.org/dc/elements/1.1/"
   xmlns:cc="http://creativecommons.org/ns#"
   xmlns:rdf="http://www.w3.org/1999/02/22-rdf-syntax-ns#"
   xmlns:svg="http://www.w3.org/2000/svg"
   xmlns="http://www.w3.org/2000/svg"
   xmlns:sodipodi="http://sodipodi.sourceforge.net/DTD/sodipodi-0.dtd"
   xmlns:inkscape="http://www.inkscape.org/namespaces/inkscape"
   viewBox="0 0 16 16"
   id="svg3247"
   version="1.1"
   inkscape:version="0.91 r13725"
   sodipodi:docname="media-playlist-shuffle-symbolic.svg">
  <metadata
     id="metadata3255">
    <rdf:RDF>
      <cc:Work
         rdf:about="">
        <dc:format>image/svg+xml</dc:format>
        <dc:type
           rdf:resource="http://purl.org/dc/dcmitype/StillImage" />
      </cc:Work>
    </rdf:RDF>
  </metadata>
  <sodipodi:namedview
     pagecolor="#ffffff"
     bordercolor="#666666"
     borderopacity="1"
     objecttolerance="10"
     gridtolerance="10"
     guidetolerance="10"
     inkscape:pageopacity="0"
     inkscape:pageshadow="2"
     inkscape:window-width="640"
     inkscape:window-height="480"
     id="namedview3253"
     showgrid="false"
     inkscape:zoom="41.1875"
     inkscape:cx="4.2124431"
     inkscape:cy="8"
     inkscape:current-layer="svg3247" />
  <defs
     id="defs3051">
    <style
       type="text/css"
       id="current-color-scheme">
      .ColorScheme-Text {
        color:#bebebe;
      }
      </style>
  </defs>
  <path
     style="color:#bebebe;fill:currentColor;fill-opacity:1;stroke:none"
     class="ColorScheme-Text"
     d="M 3.4694828,2.5 2.5,3.469485 6.0543211,7.023805 7.0305183,6.05432 3.4694828,2.5 Z M 9.71875,2.5 11.120605,3.901851 2.5,12.530515 3.4694828,13.5 12.098145,4.879399 13.5,6.28125 13.5,2.5 9.71875,2.5 Z M 9.94568,8.969485 8.976195,9.939025 11.128661,12.090141 9.71875,13.5 13.5,13.5 13.5,9.71875 12.098145,11.120601 9.9456778,8.969485 Z"
     id="path3251"
     inkscape:connector-curvature="0" />
</svg>

<svg version="1.1" viewBox="0 0 16 16" xmlns="http://www.w3.org/2000/svg">
<defs>
<style id="current-color-scheme" type="text/css">.ColorScheme-Text {
        color:#bebebe;
      }</style>
</defs>
<path class="ColorScheme-Text" d="m3.4695 2.5-0.96948 0.96948 3.5543 3.5543 0.9762-0.96948-3.561-3.5543zm6.2493 0 1.4019 1.4019-8.6206 8.6287 0.96948 0.96948 8.6287-8.6206 1.4019 1.4019v-3.7812h-3.7812zm0.22693 6.4695-0.96948 0.96954 2.1525 2.1511-1.4099 1.4099h3.7812v-3.7812l-1.4019 1.4019-2.1525-2.1511z" color="#bebebe" fill="currentColor"/>
</svg>
